images/light/createtopic.svg

<svg height="16" viewBox="0 0 16 16" width="16" xmlns="http://www.w3.org/2000/svg" xmlns:xlink="http://www.w3.org/1999/xlink"><image height="16" width="16" xlink:href="data:image/png;base64,iVBORw0KGgoAAAANSUhEUgAAABAAAAAQCAYAAAAf8/9hAAAAAXNSR0IArs4c6QAAABVJREFUOBFjYBgFoyEwGgKjIQAJAQAEEAABvmNTIgAAAABJRU5ErkJggg=="/><g fill="#646465"><path d="m5 5h3v-3h-3z"/><path d="m9 5h3v-3h-3z"/><path d="m13 5h3v-3h-3z"/></g><path d="m4.889 4.562s-.001-.562.557-.562h1.11s.556.006.556.558v3.332h3.332s.556-.001.556.555v1.113s.004.555-.556.555c-.153 0-3.334 0-3.334 0v3.332s.003.555-.556.555-1.108 0-1.108 0-.556.001-.556-.555 0-3.332 0-3.332h-3.333s-.557 0-.557-.56c0-.559 0-1.11 0-1.11s.005-.551.558-.551h3.33z" fill="#009903"/><path d="m7.609 13.719v-3.094l3.125-.016.797-.781-.265-2.281-3.672-.141-.172-3.734-2.297-.172-.75.875v3.031l-3.5.047-.406 2.375.812.797h3.094l.063 3.516 2.375.39z" fill="none" stroke="#c5c5c5" stroke-linecap="round"/></svg>

<?xml version="1.0" encoding="UTF-8"?>
<svg width="16px" height="16px" viewBox="0 0 16 16" xmlns="http://www.w3.org/2000/svg" xmlns:xlink="http://www.w3.org/1999/xlink" version="1.1">
 <!-- Generated by Pixelmator Pro 1.2.4 -->
 <defs>
  <image id="image" width="16px" height="16px" xlink:href="data:image/png;base64,iVBORw0KGgoAAAANSUhEUgAAABAAAAAQCAYAAAAf8/9hAAAAAXNSR0IArs4c6QAAABVJREFUOBFjYBgFoyEwGgKjIQAJAQAEEAABvmNTIgAAAABJRU5ErkJggg=="/>
 </defs>
 <use id="layer" xlink:href="#image" x="0px" y="0px" width="16px" height="16px"/>
 <path id="path" d="M5 5 L8 5 8 2 5 2 Z" fill="#646465" fill-opacity="1" stroke="none"/>
 <path id="path-1" d="M9 5 L12 5 12 2 9 2 Z" fill="#646465" fill-opacity="1" stroke="none"/>
 <path id="path-2" d="M13 5 L16 5 16 2 13 2 Z" fill="#646465" fill-opacity="1" stroke="none"/>
 <defs>
  <path id="path-3" d="M4.889 4.562 C4.889 4.562 4.888 4 5.446 4 6.003 4 6.556 4 6.556 4 6.556 4 7.112 4.006 7.112 4.558 7.112 5.109 7.112 7.89 7.112 7.89 L10.444 7.89 C10.444 7.89 11 7.889 11 8.445 11 9.002 11 9.558 11 9.558 11 9.558 11.004 10.113 10.444 10.113 10.291 10.113 7.11 10.113 7.11 10.113 L7.11 13.445 C7.11 13.445 7.113 14 6.554 14 5.995 14 5.446 14 5.446 14 5.446 14 4.89 14.001 4.89 13.445 4.89 12.889 4.89 10.113 4.89 10.113 L1.557 10.113 C1.557 10.113 1 10.113 1 9.553 1 8.994 1 8.443 1 8.443 1 8.443 1.005 7.892 1.558 7.892 2.111 7.892 4.888 7.892 4.888 7.892 L4.889 4.562 Z"/>
 </defs>
 <use id="path-4" xlink:href="#path-3" fill="#009903" fill-opacity="1" stroke="none"/>
 <defs>
  <path id="stroke-path" d="M7.609 13.719 L7.609 10.625 10.734 10.609 11.531 9.828 11.266 7.547 7.594 7.406 7.422 3.672 5.125 3.5 4.375 4.375 4.375 7.406 0.875 7.453 0.469 9.828 1.281 10.625 4.375 10.625 4.438 14.141 6.813 14.531 Z"/>
 </defs>
 <use id="path-5" stroke="#c5c5c5" stroke-opacity="1" stroke-linecap="round" fill="none" stroke-width="1" xlink:href="#stroke-path"/>
</svg>
